X:4
T:Inisheer
C:John Walsh
R:Air
Z:Bert Van Vreckem <http://flanders.blackmill.net/>
D:Shantalla - Shantalla; Sean Talamh - Traditional Irish Music
M:3/4
Q:148
K:G
"G"B2 BA B<d|B2 BA B<d|"C"G2 GB AB|"D"D2 DB A<G|"G"B2 BA B<d|
B2 BA B<d|"C"G2 GB "D"A/G/F |[1 "G"G2 zE D<G:|[2 "G"G2 zB cd|
|:"C"e2 ef ed|"G"B2 BA B<d|"G"gf ed "D"B/^c/d|"C"e2 zd B<d|
"C"e2 ef ed|"G"B2 BA B<d|"C"G2 GB "D"A/G/F|[1 "G"G2 zB cd:|[2 "G"G6 |]
